X:5645
T:the Silver Spire
M:4/4
O:Ireland
R:Reel
Z:Richard Robinson 
%%TUNEURL: http://www.leeds.ac.uk/music/Info/RRTuneBk/gettune/00000b08.html
%%ID:00000b08
K:D
D2FD A,DFA|dcde fdAF|G2BG FADF|(3GFE FD CEHA,2|\
D2FD A,DFA|dcde fdAF|
GABG FADF|EA,CE D4::\
A,B,CD EFGE|FDEF GABc|
dBBA Bcde|fdgf e4|\
d2fd ceAc|dcdB AFDF|G2BG FADF|EA,CE D4:|
